plugin/icons/svg/tool panel/panel-pen-vector/icon_pen-vector-20%.svg

<svg width="18" height="24" viewBox="0 0 18 24" fill="none" xmlns="http://www.w3.org/2000/svg">
<rect width="18" height="24" fill="#D1D1D1"/>
<path fill-rule="evenodd" clip-rule="evenodd" d="M13 8H6V15H13V8ZM5 7V16H14V7H5Z" fill="#252525"/>
<path d="M10.7495 14H7.33838V13.3232L8.94824 11.6074C9.16927 11.3659 9.33219 11.1551 9.43701 10.9751C9.54411 10.7951 9.59766 10.6242 9.59766 10.4624C9.59766 10.2414 9.54183 10.0682 9.43018 9.94287C9.31852 9.81527 9.15902 9.75146 8.95166 9.75146C8.72835 9.75146 8.55176 9.82894 8.42188 9.98389C8.29427 10.1366 8.23047 10.3382 8.23047 10.5889H7.23926C7.23926 10.2858 7.31104 10.009 7.45459 9.7583C7.60042 9.50765 7.8055 9.31169 8.06982 9.17041C8.33415 9.02686 8.63379 8.95508 8.96875 8.95508C9.48145 8.95508 9.87907 9.07812 10.1616 9.32422C10.4465 9.57031 10.5889 9.91781 10.5889 10.3667C10.5889 10.6128 10.5251 10.8634 10.3975 11.1187C10.2699 11.3739 10.0511 11.6712 9.74121 12.0107L8.60986 13.2036H10.7495V14Z" fill="#252525"/>
</svg>

<?xml version="1.0" encoding="utf-8"?>
<!-- Generator: Adobe Illustrator 25.2.0, SVG Export Plug-In . SVG Version: 6.00 Build 0)  -->
<svg version="1.1" id="Layer_1" xmlns="http://www.w3.org/2000/svg" xmlns:xlink="http://www.w3.org/1999/xlink" x="0px" y="0px"
	 viewBox="0 0 18 24" style="enable-background:new 0 0 18 24;" xml:space="preserve">
<style type="text/css">
	.st0{display:none;fill:#D1D1D1;}
	.st1{fill-rule:evenodd;clip-rule:evenodd;fill:#252525;}
	.st2{fill:#252525;}
</style>
<rect class="st0" width="18" height="24"/>
<path class="st1" d="M13,8H6v7h7V8z M5,7v9h9V7H5z"/>
<path class="st2" d="M10.7,14H7.3v-0.7l1.6-1.7c0.2-0.2,0.4-0.5,0.5-0.6c0.1-0.2,0.2-0.4,0.2-0.5c0-0.2-0.1-0.4-0.2-0.5
	C9.3,9.8,9.2,9.8,9,9.8c-0.2,0-0.4,0.1-0.5,0.2c-0.1,0.2-0.2,0.4-0.2,0.6h-1c0-0.3,0.1-0.6,0.2-0.8c0.1-0.3,0.4-0.4,0.6-0.6
	C8.3,9,8.6,9,9,9c0.5,0,0.9,0.1,1.2,0.4c0.3,0.2,0.4,0.6,0.4,1c0,0.2-0.1,0.5-0.2,0.8c-0.1,0.3-0.3,0.6-0.7,0.9l-1.1,1.2h2.1V14z"/>
</svg>
